Newaita-dark/apps/64/libreoffice-impress.svg

<svg height="64" viewBox="0 0 64 64" width="64" xmlns="http://www.w3.org/2000/svg" xmlns:xlink="http://www.w3.org/1999/xlink"><linearGradient id="a" gradientTransform="matrix(.148824 0 0 .125012 -5.260672 26.87757)" gradientUnits="userSpaceOnUse" x1="254" x2="254" y1="233.5" y2="254.666672"><stop offset="0" stop-opacity=".27451"/><stop offset="1" stop-opacity="0"/></linearGradient><linearGradient id="b"><stop offset="0" stop-opacity=".313726"/><stop offset=".222222" stop-opacity=".27451"/><stop offset="1" stop-opacity="0"/></linearGradient><radialGradient id="c" cx="450.908936" cy="189.579361" gradientTransform="matrix(.00000035 -.156265 -.281277 -.0000002 100.953697 127.190665)" gradientUnits="userSpaceOnUse" r="21.166656" xlink:href="#b"/><radialGradient id="d" cx="450.908936" cy="189.579361" gradientTransform="matrix(-.00000035 .156265 .281277 .0000002 -37.447629 -15.054958)" gradientUnits="userSpaceOnUse" r="21.166656" xlink:href="#b"/><radialGradient id="e" cx="450.908936" cy="189.579361" gradientTransform="matrix(-.00000035 -.156265 .281277 -.0000002 -37.447629 127.190665)" gradientUnits="userSpaceOnUse" r="21.166656" xlink:href="#b"/><radialGradient id="f" cx="450.908936" cy="189.579361" gradientTransform="matrix(.00000035 .156265 -.281277 .0000002 100.953693 -15.054959)" gradientUnits="userSpaceOnUse" r="21.166656" xlink:href="#b"/><linearGradient id="g"><stop offset="0" stop-color="#ff7043"/><stop offset="1" stop-color="#ff8a65"/></linearGradient><linearGradient id="h" gradientUnits="userSpaceOnUse" x1="31.753056" x2="31.753056" xlink:href="#g" y1="56.06789790428" y2="5.79222438278"/><linearGradient id="i" gradientUnits="userSpaceOnUse" x1="31.753056" x2="31.753056" y1="53.42180990428" y2="8.43831238278"><stop offset="0" stop-color="#e0e0e0"/><stop offset="1" stop-color="#eee"/></linearGradient><linearGradient id="j" gradientUnits="userSpaceOnUse" x1="31.753056" x2="31.753056" xlink:href="#g" y1="40.85298390428" y2="21.00732188664"/><path d="m15.214844 56.066406h33.078125v2.648438h-33.078125zm0 0" fill="url(#a)"/><path d="m48.292969 56.066406h5.289062v-2.644531h-5.289062zm0 0" fill="url(#c)"/><path d="m15.214844 56.066406h-5.292969v2.648438h5.292969zm0 0" fill="url(#d)"/><path d="m15.214844 56.066406h-5.292969v-2.644531h5.292969zm0 0" fill="url(#e)"/><path d="m48.292969 56.066406h5.289062v2.648438h-5.289062zm0 0" fill="url(#f)"/><path d="m13.230469 5.792969c-1.464844 0-2.644531 1.179687-2.644531 2.644531v44.984375c0 1.464844 1.179687 2.644531 2.644531 2.644531h37.046875c1.464844 0 2.644531-1.179687 2.644531-2.644531v-30.109375l-17.519531-17.519531zm27.785156 0 11.90625 11.90625v-9.261719c0-1.464844-1.179687-2.644531-2.644531-2.644531zm0 0" fill="url(#h)"/><path d="m14.554688 8.4375c-.734376 0-1.324219.589844-1.324219 1.324219v42.335937c0 .734375.589843 1.324219 1.324219 1.324219h34.398437c.734375 0 1.324219-.589844 1.324219-1.324219v-27.78125l-15.878906-15.878906zm0 0" fill="url(#i)"/><path d="m13.230469 5.792969c-1.464844 0-2.644531 1.179687-2.644531 2.644531v.664062c0-1.46875 1.179687-2.648437 2.644531-2.648437h22.171875l17.519531 17.519531v-.660156l-17.519531-17.519531zm27.785156 0 .660156.660156h8.601563c1.464844 0 2.644531 1.179687 2.644531 2.648437v-.664062c0-1.464844-1.179687-2.644531-2.644531-2.644531zm0 0" fill="#fff" fill-opacity=".392157"/><path d="m14.554688 8.4375c-.734376 0-1.324219.589844-1.324219 1.324219v.992187c0-.734375.589843-1.324218 1.324219-1.324218h19.84375l15.878906 15.878906v-.992188l-15.878906-15.878906zm0 0" fill-opacity=".235294"/><path d="m13.230469 52.148438v.621093c0 .734375.589843 1.324219 1.324219 1.324219h34.398437c.734375 0 1.324219-.589844 1.324219-1.324219v-.621093c0 .730468-.589844 1.320312-1.324219 1.320312h-34.398437c-.734376 0-1.324219-.589844-1.324219-1.320312zm0 0" fill="#fff" fill-opacity=".392157"/><path d="m440.036742 255.093763c-22.202605 0-40.035549 17.832944-40.035549 40.035549v1279.956578c0 22.202605 17.832944 40.035549 40.035549 40.035549h1039.979482c22.202605 0 40.035549-17.832944 40.035549-40.035549v-839.919836l-480.072291-480.072291zm0 0" fill="none" stroke="#212121" stroke-linecap="round" stroke-linejoin="round" stroke-width="11.338583" transform="scale(.0330761)"/><path d="m41.015625 5.792969 11.90625 11.90625v-.644531l-11.261719-11.261719zm-30.429687 46.984375v.644531c0 1.464844 1.179687 2.644531 2.644531 2.644531h37.046875c1.464844 0 2.644531-1.179687 2.644531-2.644531v-.644531c0 1.464844-1.179687 2.644531-2.644531 2.644531h-37.046875c-1.464844 0-2.644531-1.179687-2.644531-2.644531zm0 0" fill-opacity=".235294"/><path d="m400.001193 175.140764c-44.287112 0-79.952999 35.665888-79.952999 79.952999v1360.027676c0 44.287112 35.665887 79.952999 79.952999 79.952999h1120.05058c44.287111 0 79.952999-35.665887 79.952999-79.952999v-910.306819l-529.673856-529.673856zm840.037935 0 359.965644 359.965644v-280.012645c0-44.287111-35.665888-79.952999-79.952999-79.952999zm0 0" fill="none" stroke="#212121" stroke-linecap="round" stroke-linejoin="round" stroke-width="11.338583" transform="scale(.0330761)"/><path d="m33.738281 19.023438v9.921874h9.921875c0-5.496093-4.425781-9.921874-9.921875-9.921874zm-1.984375 1.984374c-5.5 0-9.921875 4.425782-9.921875 9.921876 0 5.496093 4.421875 9.921874 9.921875 9.921874 5.496094 0 9.921875-4.425781 9.921875-9.921874h-9.921875zm0 0" fill="url(#j)"/><path d="m33.738281 19.023438v.992187c5.160157 0 9.378907 3.902344 9.875 8.929687h.046875c0-5.496093-4.425781-9.921874-9.921875-9.921874zm-1.984375 1.984374c-5.5 0-9.921875 4.425782-9.921875 9.921876 0 .167968.003907.332031.011719.496093.253906-5.265625 4.578125-9.425781 9.910156-9.425781zm0 9.921876v.992187h9.875c.03125-.324219.046875-.65625.046875-.992187zm0 0" fill="#fff" fill-opacity=".392157"/><path d="m33.738281 28.945312v.992188h9.921875c0-.335938-.015625-.664062-.046875-.992188zm-11.894531 2.480469c-.007812.164063-.011719.332031-.011719.496094 0 5.496094 4.421875 9.921875 9.921875 9.921875 5.496094 0 9.921875-4.425781 9.921875-9.921875h-.046875c-.496094 5.027344-4.714844 8.929687-9.875 8.929687-5.332031 0-9.65625-4.160156-9.910156-9.425781zm0 0" fill-opacity=".235294"/><path d="m269.880478-62.827032v79.367421h79.36742c0-43.964552-35.402869-79.367421-79.36742-79.367421zm-15.873484 15.873484c-43.995799 0-79.367421 35.40287-79.367421 79.367421 0 43.964552 35.371622 79.367421 79.367421 79.367421 43.964551 0 79.36742-35.402869 79.36742-79.367421h-79.36742zm0 0" fill="none" stroke="#212121" stroke-linecap="round" stroke-linejoin="round" stroke-width="3" transform="matrix(.125012 0 0 .125012 0 26.877566)"/></svg>

<?xml version="1.0" encoding="UTF-8"?>
<svg xmlns="http://www.w3.org/2000/svg" xmlns:xlink="http://www.w3.org/1999/xlink" width="64px" height="64px" viewBox="0 0 64 64" version="1.1">
<defs>
<linearGradient id="linear0" gradientUnits="userSpaceOnUse" x1="254" y1="233.5" x2="254" y2="254.666672" gradientTransform="matrix(0.148824,0,0,0.125012,-5.260672,26.87757)">
<stop offset="0" style="stop-color:rgb(0%,0%,0%);stop-opacity:0.27451;"/>
<stop offset="1" style="stop-color:rgb(0%,0%,0%);stop-opacity:0;"/>
</linearGradient>
<radialGradient id="radial0" gradientUnits="userSpaceOnUse" cx="450.908936" cy="189.579361" fx="450.908936" fy="189.579361" r="21.166656" gradientTransform="matrix(0.000000348341,-0.156265,-0.281277,-0.000000203077,100.953697,127.190665)">
<stop offset="0" style="stop-color:rgb(0%,0%,0%);stop-opacity:0.313726;"/>
<stop offset="0.222222" style="stop-color:rgb(0%,0%,0%);stop-opacity:0.27451;"/>
<stop offset="1" style="stop-color:rgb(0%,0%,0%);stop-opacity:0;"/>
</radialGradient>
<radialGradient id="radial1" gradientUnits="userSpaceOnUse" cx="450.908936" cy="189.579361" fx="450.908936" fy="189.579361" r="21.166656" gradientTransform="matrix(-0.000000348341,0.156265,0.281277,0.000000203077,-37.447629,-15.054958)">
<stop offset="0" style="stop-color:rgb(0%,0%,0%);stop-opacity:0.313726;"/>
<stop offset="0.222222" style="stop-color:rgb(0%,0%,0%);stop-opacity:0.27451;"/>
<stop offset="1" style="stop-color:rgb(0%,0%,0%);stop-opacity:0;"/>
</radialGradient>
<radialGradient id="radial2" gradientUnits="userSpaceOnUse" cx="450.908936" cy="189.579361" fx="450.908936" fy="189.579361" r="21.166656" gradientTransform="matrix(-0.000000348341,-0.156265,0.281277,-0.000000203077,-37.447629,127.190665)">
<stop offset="0" style="stop-color:rgb(0%,0%,0%);stop-opacity:0.313726;"/>
<stop offset="0.222222" style="stop-color:rgb(0%,0%,0%);stop-opacity:0.27451;"/>
<stop offset="1" style="stop-color:rgb(0%,0%,0%);stop-opacity:0;"/>
</radialGradient>
<radialGradient id="radial3" gradientUnits="userSpaceOnUse" cx="450.908936" cy="189.579361" fx="450.908936" fy="189.579361" r="21.166656" gradientTransform="matrix(0.000000348341,0.156265,-0.281277,0.000000203077,100.953693,-15.054959)">
<stop offset="0" style="stop-color:rgb(0%,0%,0%);stop-opacity:0.313726;"/>
<stop offset="0.222222" style="stop-color:rgb(0%,0%,0%);stop-opacity:0.27451;"/>
<stop offset="1" style="stop-color:rgb(0%,0%,0%);stop-opacity:0;"/>
</radialGradient>
<linearGradient id="linear1" gradientUnits="userSpaceOnUse" x1="960" y1="1695.118164" x2="960" y2="175.118118" gradientTransform="matrix(0.0330761,0,0,0.0330761,0,0)">
<stop offset="0" style="stop-color:rgb(100%,43.921569%,26.274511%);stop-opacity:1;"/>
<stop offset="1" style="stop-color:rgb(100%,54.11765%,39.607844%);stop-opacity:1;"/>
</linearGradient>
<linearGradient id="linear2" gradientUnits="userSpaceOnUse" x1="960" y1="1615.118164" x2="960" y2="255.118118" gradientTransform="matrix(0.0330761,0,0,0.0330761,0,0)">
<stop offset="0" style="stop-color:rgb(87.843138%,87.843138%,87.843138%);stop-opacity:1;"/>
<stop offset="1" style="stop-color:rgb(93.333334%,93.333334%,93.333334%);stop-opacity:1;"/>
</linearGradient>
<linearGradient id="linear3" gradientUnits="userSpaceOnUse" x1="940" y1="1215.118164" x2="940" y2="615.118103" gradientTransform="matrix(0.0330761,0,0,0.0330761,0.661522,0.661614)">
<stop offset="0" style="stop-color:rgb(100%,43.921569%,26.274511%);stop-opacity:1;"/>
<stop offset="1" style="stop-color:rgb(100%,54.11765%,39.607844%);stop-opacity:1;"/>
</linearGradient>
</defs>
<g id="surface1">
<path style=" stroke:none;fill-rule:nonzero;fill:url(#linear0);" d="M 15.214844 56.066406 L 48.292969 56.066406 L 48.292969 58.714844 L 15.214844 58.714844 Z M 15.214844 56.066406 "/>
<path style=" stroke:none;fill-rule:nonzero;fill:url(#radial0);" d="M 48.292969 56.066406 L 53.582031 56.066406 L 53.582031 53.421875 L 48.292969 53.421875 Z M 48.292969 56.066406 "/>
<path style=" stroke:none;fill-rule:nonzero;fill:url(#radial1);" d="M 15.214844 56.066406 L 9.921875 56.066406 L 9.921875 58.714844 L 15.214844 58.714844 Z M 15.214844 56.066406 "/>
<path style=" stroke:none;fill-rule:nonzero;fill:url(#radial2);" d="M 15.214844 56.066406 L 9.921875 56.066406 L 9.921875 53.421875 L 15.214844 53.421875 Z M 15.214844 56.066406 "/>
<path style=" stroke:none;fill-rule:nonzero;fill:url(#radial3);" d="M 48.292969 56.066406 L 53.582031 56.066406 L 53.582031 58.714844 L 48.292969 58.714844 Z M 48.292969 56.066406 "/>
<path style=" stroke:none;fill-rule:nonzero;fill:url(#linear1);" d="M 13.230469 5.792969 C 11.765625 5.792969 10.585938 6.972656 10.585938 8.4375 L 10.585938 53.421875 C 10.585938 54.886719 11.765625 56.066406 13.230469 56.066406 L 50.277344 56.066406 C 51.742188 56.066406 52.921875 54.886719 52.921875 53.421875 L 52.921875 23.3125 L 35.402344 5.792969 Z M 41.015625 5.792969 L 52.921875 17.699219 L 52.921875 8.4375 C 52.921875 6.972656 51.742188 5.792969 50.277344 5.792969 Z M 41.015625 5.792969 "/>
<path style=" stroke:none;fill-rule:nonzero;fill:url(#linear2);" d="M 14.554688 8.4375 C 13.820312 8.4375 13.230469 9.027344 13.230469 9.761719 L 13.230469 52.097656 C 13.230469 52.832031 13.820312 53.421875 14.554688 53.421875 L 48.953125 53.421875 C 49.6875 53.421875 50.277344 52.832031 50.277344 52.097656 L 50.277344 24.316406 L 34.398438 8.4375 Z M 14.554688 8.4375 "/>
<path style=" stroke:none;fill-rule:nonzero;fill:rgb(100%,100%,100%);fill-opacity:0.392157;" d="M 13.230469 5.792969 C 11.765625 5.792969 10.585938 6.972656 10.585938 8.4375 L 10.585938 9.101562 C 10.585938 7.632812 11.765625 6.453125 13.230469 6.453125 L 35.402344 6.453125 L 52.921875 23.972656 L 52.921875 23.3125 L 35.402344 5.792969 Z M 41.015625 5.792969 L 41.675781 6.453125 L 50.277344 6.453125 C 51.742188 6.453125 52.921875 7.632812 52.921875 9.101562 L 52.921875 8.4375 C 52.921875 6.972656 51.742188 5.792969 50.277344 5.792969 Z M 41.015625 5.792969 "/>
<path style=" stroke:none;fill-rule:nonzero;fill:rgb(0%,0%,0%);fill-opacity:0.235294;" d="M 14.554688 8.4375 C 13.820312 8.4375 13.230469 9.027344 13.230469 9.761719 L 13.230469 10.753906 C 13.230469 10.019531 13.820312 9.429688 14.554688 9.429688 L 34.398438 9.429688 L 50.277344 25.308594 L 50.277344 24.316406 L 34.398438 8.4375 Z M 14.554688 8.4375 "/>
<path style=" stroke:none;fill-rule:nonzero;fill:rgb(100%,100%,100%);fill-opacity:0.392157;" d="M 13.230469 52.148438 L 13.230469 52.769531 C 13.230469 53.503906 13.820312 54.09375 14.554688 54.09375 L 48.953125 54.09375 C 49.6875 54.09375 50.277344 53.503906 50.277344 52.769531 L 50.277344 52.148438 C 50.277344 52.878906 49.6875 53.46875 48.953125 53.46875 L 14.554688 53.46875 C 13.820312 53.46875 13.230469 52.878906 13.230469 52.148438 Z M 13.230469 52.148438 "/>
<path style="fill:none;stroke-width:11.338583;stroke-linecap:round;stroke-linejoin:round;stroke:rgb(12.941177%,12.941177%,12.941177%);stroke-opacity:1;stroke-miterlimit:4;" d="M 440.036742 255.093763 C 417.834137 255.093763 400.001193 272.926707 400.001193 295.129312 L 400.001193 1575.08589 C 400.001193 1597.288495 417.834137 1615.121439 440.036742 1615.121439 L 1480.016224 1615.121439 C 1502.218829 1615.121439 1520.051773 1597.288495 1520.051773 1575.08589 L 1520.051773 735.166054 L 1039.979482 255.093763 Z M 440.036742 255.093763 " transform="matrix(0.0330761,0,0,0.0330761,0,0)"/>
<path style=" stroke:none;fill-rule:nonzero;fill:rgb(0%,0%,0%);fill-opacity:0.235294;" d="M 41.015625 5.792969 L 52.921875 17.699219 L 52.921875 17.054688 L 41.660156 5.792969 Z M 10.585938 52.777344 L 10.585938 53.421875 C 10.585938 54.886719 11.765625 56.066406 13.230469 56.066406 L 50.277344 56.066406 C 51.742188 56.066406 52.921875 54.886719 52.921875 53.421875 L 52.921875 52.777344 C 52.921875 54.242188 51.742188 55.421875 50.277344 55.421875 L 13.230469 55.421875 C 11.765625 55.421875 10.585938 54.242188 10.585938 52.777344 Z M 10.585938 52.777344 "/>
<path style="fill:none;stroke-width:11.338583;stroke-linecap:round;stroke-linejoin:round;stroke:rgb(12.941177%,12.941177%,12.941177%);stroke-opacity:1;stroke-miterlimit:4;" d="M 400.001193 175.140764 C 355.714081 175.140764 320.048194 210.806652 320.048194 255.093763 L 320.048194 1615.121439 C 320.048194 1659.408551 355.714081 1695.074438 400.001193 1695.074438 L 1520.051773 1695.074438 C 1564.338884 1695.074438 1600.004772 1659.408551 1600.004772 1615.121439 L 1600.004772 704.81462 L 1070.330916 175.140764 Z M 1240.039128 175.140764 L 1600.004772 535.106408 L 1600.004772 255.093763 C 1600.004772 210.806652 1564.338884 175.140764 1520.051773 175.140764 Z M 1240.039128 175.140764 " transform="matrix(0.0330761,0,0,0.0330761,0,0)"/>
<path style=" stroke:none;fill-rule:nonzero;fill:url(#linear3);" d="M 33.738281 19.023438 L 33.738281 28.945312 L 43.660156 28.945312 C 43.660156 23.449219 39.234375 19.023438 33.738281 19.023438 Z M 31.753906 21.007812 C 26.253906 21.007812 21.832031 25.433594 21.832031 30.929688 C 21.832031 36.425781 26.253906 40.851562 31.753906 40.851562 C 37.25 40.851562 41.675781 36.425781 41.675781 30.929688 L 31.753906 30.929688 Z M 31.753906 21.007812 "/>
<path style=" stroke:none;fill-rule:nonzero;fill:rgb(100%,100%,100%);fill-opacity:0.392157;" d="M 33.738281 19.023438 L 33.738281 20.015625 C 38.898438 20.015625 43.117188 23.917969 43.613281 28.945312 L 43.660156 28.945312 C 43.660156 23.449219 39.234375 19.023438 33.738281 19.023438 Z M 31.753906 21.007812 C 26.253906 21.007812 21.832031 25.433594 21.832031 30.929688 C 21.832031 31.097656 21.835938 31.261719 21.84375 31.425781 C 22.097656 26.160156 26.421875 22 31.753906 22 Z M 31.753906 30.929688 L 31.753906 31.921875 L 41.628906 31.921875 C 41.660156 31.597656 41.675781 31.265625 41.675781 30.929688 Z M 31.753906 30.929688 "/>
<path style=" stroke:none;fill-rule:nonzero;fill:rgb(0%,0%,0%);fill-opacity:0.235294;" d="M 33.738281 28.945312 L 33.738281 29.9375 L 43.660156 29.9375 C 43.660156 29.601562 43.644531 29.273438 43.613281 28.945312 Z M 21.84375 31.425781 C 21.835938 31.589844 21.832031 31.757812 21.832031 31.921875 C 21.832031 37.417969 26.253906 41.84375 31.753906 41.84375 C 37.25 41.84375 41.675781 37.417969 41.675781 31.921875 L 41.628906 31.921875 C 41.132812 36.949219 36.914062 40.851562 31.753906 40.851562 C 26.421875 40.851562 22.097656 36.691406 21.84375 31.425781 Z M 21.84375 31.425781 "/>
<path style="fill:none;stroke-width:3;stroke-linecap:round;stroke-linejoin:round;stroke:rgb(12.941177%,12.941177%,12.941177%);stroke-opacity:1;stroke-miterlimit:4;" d="M 269.880478 -62.827032 L 269.880478 16.540389 L 349.247898 16.540389 C 349.247898 -27.424163 313.845029 -62.827032 269.880478 -62.827032 Z M 254.006994 -46.953548 C 210.011195 -46.953548 174.639573 -11.550678 174.639573 32.413873 C 174.639573 76.378425 210.011195 111.781294 254.006994 111.781294 C 297.971545 111.781294 333.374414 76.378425 333.374414 32.413873 L 254.006994 32.413873 Z M 254.006994 -46.953548 " transform="matrix(0.125012,0,0,0.125012,0,26.877566)"/>
</g>
</svg>
